src/assets/img/icons/duotone-icons/Tools/Screwdriver.svg

<?xml version="1.0" encoding="UTF-8"?>
<svg width="24px" height="24px" viewBox="0 0 24 24" version="1.1" xmlns="http://www.w3.org/2000/svg" xmlns:xlink="http://www.w3.org/1999/xlink">
    <!-- Generator: Sketch 52.2 (67145) - http://www.bohemiancoding.com/sketch -->
    <title>Stockholm-icons / Tools / Screwdriver</title>
    <desc>Created with Sketch.</desc>
    <g id="Stockholm-icons-/-Tools-/-Screwdriver" stroke="none" stroke-width="1" fill="none" fill-rule="evenodd">
        <rect id="bound" x="0" y="0" width="24" height="24"></rect>
        <path d="M8.46446609,11.2928932 L7.40380592,10.232233 C7.20854378,10.0369709 7.20854378,9.72038841 7.40380592,9.52512627 L8.1109127,8.81801948 C8.30617485,8.62275734 8.62275734,8.62275734 8.81801948,8.81801948 L15.1819805,15.1819805 C15.3772427,15.3772427 15.3772427,15.6938252 15.1819805,15.8890873 L14.4748737,16.5961941 C14.2796116,16.7914562 13.9630291,16.7914562 13.767767,16.5961941 L12.7071068,15.5355339 L7.05025253,21.1923882 C6.26920395,21.9734367 5.00287399,21.9734367 4.22182541,21.1923882 L2.80761184,19.7781746 C2.02656326,18.997126 2.02656326,17.7307961 2.80761184,16.9497475 L8.46446609,11.2928932 Z M4.5753788,18.0104076 C4.38011665,18.2056698 4.38011665,18.5222523 4.5753788,18.7175144 C4.77064094,18.9127766 5.08722343,18.9127766 5.28248558,18.7175144 L9.52512627,14.4748737 C9.72038841,14.2796116 9.72038841,13.9630291 9.52512627,13.767767 C9.32986412,13.5725048 9.01328163,13.5725048 8.81801948,13.767767 L4.5753788,18.0104076 Z" id="Combined-Shape" fill="#335EEA" opacity="0.3"></path>
        <path d="M16.9497475,5.63603897 L16.7788182,5.4651097 C16.5835561,5.26984755 16.5835561,4.95326506 16.7788182,4.75800292 C16.8266988,4.71012232 16.8838059,4.67246608 16.9466763,4.64731796 L19.4720576,3.63716542 C19.657766,3.56288206 19.869875,3.60641908 20.0113063,3.74785037 L20.2521496,3.98869366 C20.3935809,4.13012495 20.4371179,4.342234 20.3628346,4.52794239 L19.352682,7.05332375 C19.2501253,7.30971551 18.9591401,7.43442346 18.7027484,7.33186676 C18.6398781,7.30671864 18.5827709,7.2690624 18.5348903,7.2211818 L18.363961,7.05025253 L12.7071068,12.7071068 L11.2928932,11.2928932 L16.9497475,5.63603897 Z" id="Combined-Shape" fill="#335EEA"></path>
    </g>
</svg>

<svg width="24" height="24" viewBox="0 0 24 24" xmlns="http://www.w3.org/2000/svg"><g fill="none" fill-rule="evenodd"><path d="M0 0h24v24H0z"/><path d="M8.464 11.293l-1.06-1.06a.5.5 0 010-.708l.707-.707a.5.5 0 01.707 0l6.364 6.364a.5.5 0 010 .707l-.707.707a.5.5 0 01-.707 0l-1.06-1.06-5.658 5.656a2 2 0 01-2.828 0l-1.414-1.414a2 2 0 010-2.828l5.656-5.657zM4.575 18.01a.5.5 0 00.707.708l4.243-4.243a.5.5 0 10-.707-.707L4.575 18.01z" fill="#335EEA" opacity=".3"/><path d="M16.95 5.636l-.171-.17a.5.5 0 01.168-.819l2.525-1.01a.5.5 0 01.54.11l.24.242a.5.5 0 01.11.539l-1.01 2.525a.5.5 0 01-.817.168l-.171-.17-5.657 5.656-1.414-1.414 5.657-5.657z" fill="#335EEA"/></g></svg>
